fs/building_home_20_regular.svg

<svg viewBox="0 0 20 20" fill="none" xmlns="http://www.w3.org/2000/svg" height="1em" width="1em">
  <path d="M3.25 3C3.11193 3 3 3.11193 3 3.25V13.75C3 13.8881 3.11193 14 3.25 14H7.5V15H3.25C2.55964 15 2 14.4404 2 13.75V3.25C2 2.55964 2.55964 2 3.25 2H8.75C9.44036 2 10 2.55964 10 3.25V5.75C10 5.88807 10.1119 6 10.25 6H11.75C12.4404 6 13 6.55964 13 7.25V8.00021C12.649 8.0393 12.3053 8.16102 12 8.36534V7.25C12 7.11193 11.8881 7 11.75 7H10.25C9.55964 7 9 6.44036 9 5.75V3.25C9 3.11193 8.88807 3 8.75 3H3.25ZM14.061 9.2844C13.5937 8.886 12.9063 8.886 12.439 9.2844L8.96827 12.2436C8.67115 12.4969 8.5 12.8677 8.5 13.2582V17.8742C8.5 18.4956 9.00368 18.9992 9.625 18.9992H11.375C11.9963 18.9992 12.5 18.4955 12.5 17.8742V16.125C12.5 16.056 12.556 16 12.625 16H13.875C13.944 16 14 16.056 14 16.125V17.8742C14 18.4955 14.5037 18.9992 15.125 18.9992H16.875C17.4963 18.9992 18 18.4955 18 17.8742V13.2582C18 12.8677 17.8289 12.4969 17.5317 12.2436L14.061 9.2844ZM13.0878 10.0454C13.1813 9.96568 13.3187 9.96568 13.4122 10.0454L16.8829 13.0045C16.9572 13.0679 17 13.1606 17 13.2582V17.8742C17 17.9433 16.944 17.9992 16.875 17.9992H15.125C15.056 17.9992 15 17.9433 15 17.8742V16.125C15 15.5037 14.4963 15 13.875 15H12.625C12.0037 15 11.5 15.5037 11.5 16.125V17.8742C11.5 17.9433 11.444 17.9992 11.375 17.9992H9.625C9.55596 17.9992 9.5 17.9433 9.5 17.8742V13.2582C9.5 13.1606 9.54279 13.0679 9.61707 13.0045L13.0878 10.0454ZM5.5 4.75C5.5 5.16421 5.16421 5.5 4.75 5.5C4.33579 5.5 4 5.16421 4 4.75C4 4.33579 4.33579 4 4.75 4C5.16421 4 5.5 4.33579 5.5 4.75ZM4.75 7.75C5.16421 7.75 5.5 7.41421 5.5 7C5.5 6.58579 5.16421 6.25 4.75 6.25C4.33579 6.25 4 6.58579 4 7C4 7.41421 4.33579 7.75 4.75 7.75ZM5.5 9.25C5.5 9.66421 5.16421 10 4.75 10C4.33579 10 4 9.66421 4 9.25C4 8.83579 4.33579 8.5 4.75 8.5C5.16421 8.5 5.5 8.83579 5.5 9.25ZM7.25 5.5C7.66421 5.5 8 5.16421 8 4.75C8 4.33579 7.66421 4 7.25 4C6.83579 4 6.5 4.33579 6.5 4.75C6.5 5.16421 6.83579 5.5 7.25 5.5ZM8 7C8 7.41421 7.66421 7.75 7.25 7.75C6.83579 7.75 6.5 7.41421 6.5 7C6.5 6.58579 6.83579 6.25 7.25 6.25C7.66421 6.25 8 6.58579 8 7ZM7.25 10C7.66421 10 8 9.66421 8 9.25C8 8.83579 7.66421 8.5 7.25 8.5C6.83579 8.5 6.5 8.83579 6.5 9.25C6.5 9.66421 6.83579 10 7.25 10Z" fill="#212121"/>
</svg>

<svg viewBox="0 0 20 20" fill="none" xmlns="http://www.w3.org/2000/svg" height="1em" width="1em">
  <path d="M3.25 3a.25.25 0 0 0-.25.25v10.5c0 .138.112.25.25.25H7.5v1H3.25C2.56 15 2 14.44 2 13.75V3.25C2 2.56 2.56 2 3.25 2h5.5C9.44 2 10 2.56 10 3.25v2.5c0 .138.112.25.25.25h1.5c.69 0 1.25.56 1.25 1.25V8c-.351.04-.695.161-1 .365V7.25a.25.25 0 0 0-.25-.25h-1.5C9.56 7 9 6.44 9 5.75v-2.5A.25.25 0 0 0 8.75 3h-5.5Zm10.811 6.284a1.25 1.25 0 0 0-1.622 0l-3.47 2.96a1.333 1.333 0 0 0-.469 1.014v4.616c0 .622.504 1.125 1.125 1.125h1.75c.621 0 1.125-.503 1.125-1.125v-1.749c0-.069.056-.125.125-.125h1.25c.069 0 .125.056.125.125v1.75c0 .62.504 1.124 1.125 1.124h1.75c.621 0 1.125-.503 1.125-1.125v-4.616c0-.39-.171-.761-.468-1.014l-3.471-2.96Zm-.973.761a.25.25 0 0 1 .324 0l3.47 2.96a.334.334 0 0 1 .118.253v4.616c0 .07-.056.125-.125.125h-1.75a.125.125 0 0 1-.125-.125v-1.749c0-.621-.504-1.125-1.125-1.125h-1.25c-.621 0-1.125.504-1.125 1.125v1.75a.125.125 0 0 1-.125.124h-1.75a.125.125 0 0 1-.125-.125v-4.616c0-.097.043-.19.117-.253l3.47-2.96ZM5.5 4.75a.75.75 0 1 1-1.5 0 .75.75 0 0 1 1.5 0Zm-.75 3a.75.75 0 1 0 0-1.5.75.75 0 0 0 0 1.5Zm.75 1.5a.75.75 0 1 1-1.5 0 .75.75 0 0 1 1.5 0ZM7.25 5.5a.75.75 0 1 0 0-1.5.75.75 0 0 0 0 1.5ZM8 7a.75.75 0 1 1-1.5 0A.75.75 0 0 1 8 7Zm-.75 3a.75.75 0 1 0 0-1.5.75.75 0 0 0 0 1.5Z" fill="#212121"/>
</svg>
